; generated by Slic3r 1.37.2.1-prusa3d on 2019-03-03 at 16:55:00

; 

; external perimeters extrusion width = 0.42mm
; perimeters extrusion width = 0.45mm
; infill extrusion width = 0.45mm
; solid infill extrusion width = 0.45mm
; top infill extrusion width = 0.42mm
; support material extrusion width = 0.35mm
; first layer extrusion width = 0.42mm

M107 ; disable fan
M115 U3.1.0 ; tell printer latest fw version
M83  ; extruder relative mode
M104 S215 ; set extruder temp
M140 S55 ; set bed temp
M190 S55 ; wait for bed temp
M109 S215 ; wait for extruder temp
G28 W ; home all without mesh bed level
G80 ; mesh bed leveling
G1 Y-3.0 F1000.0 ; go outside pritn area
G1 X60.0 E9.0  F1000.0 ; intro line
G1 X100.0 E12.5  F1000.0 ; intro line
G92 E0.0
M900 K30
G21 ; set units to millimeters
G90 ; use absolute coordinates
M83 ; use relative distances for extrusion
;BEFORE_LAYER_CHANGE
;0.2


G1 E-0.80000 F2100.00000 ; retract
G1 Z0.600 F7200.000 ; lift Z
;AFTER_LAYER_CHANGE
;0.2
G1 X68.867 Y56.716 F7200.000 ; move to first skirt point
G1 Z0.200 F7200.000 ; restore layer Z
G1 E0.80000 F2100.00000 ; unretract
M204 S1000 ; adjust acceleration
G1 F1800
G1 X69.435 Y54.670 E0.06657 ; skirt
G1 X69.842 Y53.673 E0.03376 ; skirt
G1 X70.399 Y52.591 E0.03816 ; skirt
G1 X71.053 Y51.564 E0.03819 ; skirt
G1 X71.751 Y50.658 E0.03584 ; skirt
G1 X72.814 Y49.527 E0.04867 ; skirt
G1 X73.872 Y48.627 E0.04355 ; skirt
G1 X75.072 Y47.808 E0.04554 ; skirt
G1 X76.213 Y47.191 E0.04067 ; skirt
G1 X77.598 Y46.619 E0.04699 ; skirt
G1 X78.878 Y46.244 E0.04184 ; skirt
G1 X80.273 Y45.986 E0.04446 ; skirt
G1 X81.482 Y45.886 E0.03804 ; skirt
G1 X168.008 Y45.873 E2.71296 ; skirt
G1 X169.324 Y45.939 E0.04131 ; skirt
G1 X170.587 Y46.126 E0.04003 ; skirt
G1 X171.870 Y46.446 E0.04148 ; skirt
G1 X172.957 Y46.828 E0.03611 ; skirt
G1 X174.992 Y47.847 E0.07137 ; skirt
G1 X175.988 Y48.520 E0.03767 ; skirt
G1 X176.987 Y49.342 E0.04057 ; skirt
G1 X177.891 Y50.245 E0.04007 ; skirt
G1 X178.703 Y51.228 E0.03998 ; skirt
G1 X179.445 Y52.326 E0.04155 ; skirt
G1 X180.006 Y53.358 E0.03682 ; skirt
G1 X180.838 Y55.497 E0.07196 ; skirt
G1 X181.123 Y56.659 E0.03753 ; skirt
G1 X181.314 Y57.976 E0.04172 ; skirt
G1 X181.376 Y59.225 E0.03921 ; skirt
G1 X181.372 Y151.060 E2.87943 ; skirt
G1 X181.134 Y153.282 E0.07006 ; skirt
G1 X180.567 Y155.324 E0.06645 ; skirt
G1 X180.158 Y156.327 E0.03396 ; skirt
G1 X179.595 Y157.419 E0.03852 ; skirt
G1 X178.939 Y158.449 E0.03829 ; skirt
G1 X178.248 Y159.344 E0.03546 ; skirt
G1 X177.170 Y160.488 E0.04929 ; skirt
G1 X176.090 Y161.402 E0.04435 ; skirt
G1 X174.867 Y162.230 E0.04631 ; skirt
G1 X173.665 Y162.867 E0.04265 ; skirt
G1 X172.290 Y163.420 E0.04650 ; skirt
G1 X170.944 Y163.799 E0.04384 ; skirt
G1 X169.530 Y164.039 E0.04496 ; skirt
G1 X168.168 Y164.126 E0.04278 ; skirt
G1 X81.658 Y164.121 E2.71247 ; skirt
G1 X79.429 Y163.877 E0.07031 ; skirt
G1 X77.398 Y163.308 E0.06612 ; skirt
G1 X76.392 Y162.894 E0.03411 ; skirt
G1 X75.301 Y162.329 E0.03852 ; skirt
G1 X74.276 Y161.672 E0.03817 ; skirt
G1 X73.404 Y160.997 E0.03459 ; skirt
G1 X72.290 Y159.949 E0.04795 ; skirt
G1 X71.371 Y158.869 E0.04447 ; skirt
G1 X70.535 Y157.640 E0.04660 ; skirt
G1 X69.896 Y156.442 E0.04257 ; skirt
G1 X69.338 Y155.064 E0.04660 ; skirt
G1 X68.955 Y153.709 E0.04416 ; skirt
G1 X68.711 Y152.281 E0.04540 ; skirt
G1 X68.625 Y150.918 E0.04284 ; skirt
G1 X68.628 Y58.924 E2.88441 ; skirt
G1 X68.860 Y56.775 E0.06776 ; skirt
G1 F5760
G1 X69.435 Y54.670 E-0.75586 ; wipe and retract
G1 F5760
G1 X69.440 Y54.659 E-0.00414 ; wipe and retract
G1 E-0.04000 F2100.00000 ; retract
G1 Z0.800 F7200.000 ; lift Z
G1 X70.730 Y57.061 F7200.000 ; move to first brim point
G1 Z0.200 F7200.000 ; restore layer Z
G1 E0.80000 F2100.00000 ; unretract
G1 F1800
G1 X71.005 Y55.933 E0.03643 ; brim
G1 X71.365 Y54.915 E0.03383 ; brim
G1 X71.864 Y53.850 E0.03689 ; brim
G1 X72.488 Y52.815 E0.03789 ; brim
G1 X73.263 Y51.797 E0.04012 ; brim
G1 X74.106 Y50.910 E0.03836 ; brim
G1 X75.023 Y50.128 E0.03779 ; brim
G1 X76.018 Y49.447 E0.03779 ; brim
G1 X77.097 Y48.865 E0.03845 ; brim
G1 X78.214 Y48.408 E0.03784 ; brim
G1 X79.394 Y48.065 E0.03853 ; brim
G1 X80.580 Y47.854 E0.03777 ; brim
G1 X81.748 Y47.770 E0.03673 ; brim
G1 X168.243 Y47.769 E2.71199 ; brim
G1 X169.358 Y47.846 E0.03503 ; brim
G1 X170.480 Y48.037 E0.03568 ; brim
G1 X171.575 Y48.336 E0.03559 ; brim
G1 X172.617 Y48.735 E0.03498 ; brim
G1 X173.630 Y49.240 E0.03550 ; brim
G1 X174.588 Y49.843 E0.03549 ; brim
G1 X175.484 Y50.539 E0.03557 ; brim
G1 X176.308 Y51.319 E0.03558 ; brim
G1 X177.494 Y52.785 E0.05914 ; brim
G1 X178.094 Y53.774 E0.03626 ; brim
G1 X178.592 Y54.812 E0.03610 ; brim
G1 X178.952 Y55.793 E0.03276 ; brim
G1 X179.217 Y56.788 E0.03231 ; brim
G1 X179.393 Y57.806 E0.03239 ; brim
G1 X179.475 Y58.829 E0.03215 ; brim
G1 X179.484 Y150.865 E2.88575 ; brim
G1 X179.422 Y151.943 E0.03384 ; brim
G1 X179.257 Y153.023 E0.03427 ; brim
G1 X178.995 Y154.067 E0.03373 ; brim
G1 X178.635 Y155.085 E0.03385 ; brim
G1 X178.135 Y156.150 E0.03689 ; brim
G1 X177.513 Y157.185 E0.03788 ; brim
G1 X176.737 Y158.203 E0.04013 ; brim
G1 X175.894 Y159.091 E0.03837 ; brim
G1 X174.958 Y159.886 E0.03851 ; brim
G1 X173.944 Y160.577 E0.03848 ; brim
G1 X172.862 Y161.154 E0.03845 ; brim
G1 X171.723 Y161.614 E0.03852 ; brim
G1 X170.540 Y161.950 E0.03854 ; brim
G1 X169.353 Y162.154 E0.03778 ; brim
G1 X168.124 Y162.234 E0.03860 ; brim
G1 X81.862 Y162.234 E2.70468 ; brim
G1 X80.788 Y162.170 E0.03373 ; brim
G1 X79.725 Y162.007 E0.03372 ; brim
G1 X78.683 Y161.745 E0.03369 ; brim
G1 X77.666 Y161.385 E0.03384 ; brim
G1 X76.600 Y160.886 E0.03690 ; brim
G1 X75.565 Y160.262 E0.03789 ; brim
G1 X74.547 Y159.487 E0.04013 ; brim
G1 X73.659 Y158.644 E0.03838 ; brim
G1 X72.864 Y157.708 E0.03849 ; brim
G1 X72.184 Y156.711 E0.03787 ; brim
G1 X71.604 Y155.630 E0.03846 ; brim
G1 X71.142 Y154.492 E0.03850 ; brim
G1 X70.805 Y153.310 E0.03853 ; brim
G1 X70.596 Y152.103 E0.03842 ; brim
G1 X70.516 Y150.874 E0.03860 ; brim
G1 X70.516 Y59.134 E2.87644 ; brim
G1 X70.578 Y58.056 E0.03385 ; brim
G1 X70.721 Y57.121 E0.02967 ; brim
G1 X71.093 Y57.177 F7200.000 ; move to first brim point
G1 F1800
G1 X71.369 Y56.033 E0.03690 ; brim
G1 X71.717 Y55.050 E0.03270 ; brim
G1 X72.202 Y54.019 E0.03571 ; brim
G1 X72.805 Y53.018 E0.03665 ; brim
G1 X73.557 Y52.034 E0.03883 ; brim
G1 X74.372 Y51.177 E0.03709 ; brim
G1 X75.260 Y50.422 E0.03654 ; brim
G1 X76.222 Y49.764 E0.03655 ; brim
G1 X77.267 Y49.202 E0.03720 ; brim
G1 X78.347 Y48.761 E0.03659 ; brim
G1 X79.489 Y48.431 E0.03727 ; brim
G1 X80.636 Y48.227 E0.03652 ; brim
G1 X81.768 Y48.147 E0.03559 ; brim
G1 X168.224 Y48.146 E2.71076 ; brim
G1 X169.304 Y48.220 E0.03394 ; brim
G1 X170.407 Y48.407 E0.03508 ; brim
G1 X171.466 Y48.697 E0.03441 ; brim
G1 X172.473 Y49.083 E0.03382 ; brim
G1 X173.452 Y49.573 E0.03434 ; brim
G1 X174.379 Y50.157 E0.03433 ; brim
G1 X175.245 Y50.831 E0.03441 ; brim
G1 X176.040 Y51.584 E0.03433 ; brim
G1 X177.179 Y52.992 E0.05679 ; brim
G1 X177.758 Y53.945 E0.03498 ; brim
G1 X178.248 Y54.966 E0.03551 ; brim
G1 X178.594 Y55.914 E0.03163 ; brim
G1 X178.851 Y56.877 E0.03124 ; brim
G1 X179.020 Y57.862 E0.03132 ; brim
G1 X179.098 Y58.851 E0.03111 ; brim
G1 X179.107 Y150.860 E2.88489 ; brim
G1 X179.048 Y151.895 E0.03250 ; brim
G1 X178.889 Y152.940 E0.03315 ; brim
G1 X178.631 Y153.966 E0.03316 ; brim
G1 X178.283 Y154.950 E0.03272 ; brim
G1 X177.798 Y155.981 E0.03571 ; brim
G1 X177.195 Y156.981 E0.03664 ; brim
G1 X176.443 Y157.966 E0.03884 ; brim
G1 X175.628 Y158.823 E0.03710 ; brim
G1 X174.722 Y159.592 E0.03725 ; brim
G1 X173.757 Y160.249 E0.03661 ; brim
G1 X172.711 Y160.808 E0.03719 ; brim
G1 X171.610 Y161.254 E0.03725 ; brim
G1 X170.466 Y161.580 E0.03729 ; brim
G1 X169.318 Y161.779 E0.03653 ; brim
G1 X168.118 Y161.857 E0.03771 ; brim
G1 X81.879 Y161.857 E2.70397 ; brim
G1 X80.837 Y161.796 E0.03273 ; brim
G1 X79.792 Y161.635 E0.03315 ; brim
G1 X78.784 Y161.381 E0.03257 ; brim
G1 X77.801 Y161.033 E0.03272 ; brim
G1 X76.769 Y160.548 E0.03572 ; brim
G1 X75.769 Y159.945 E0.03665 ; brim
G1 X74.784 Y159.193 E0.03884 ; brim
G1 X73.926 Y158.378 E0.03710 ; brim
G1 X73.158 Y157.472 E0.03723 ; brim
G1 X72.501 Y156.507 E0.03661 ; brim
G1 X71.941 Y155.461 E0.03720 ; brim
G1 X71.496 Y154.360 E0.03724 ; brim
G1 X71.170 Y153.217 E0.03727 ; brim
G1 X70.969 Y152.049 E0.03716 ; brim
G1 X70.893 Y150.868 E0.03709 ; brim
G1 X70.893 Y59.139 E2.87608 ; brim
G1 X70.952 Y58.104 E0.03252 ; brim
G1 X71.084 Y57.237 E0.02751 ; brim
G1 X71.457 Y57.294 F7200.000 ; move to first brim point
G1 F1800
G1 X71.483 Y57.125 E0.00536 ; brim
G1 X71.732 Y56.134 E0.03202 ; brim
G1 X72.069 Y55.185 E0.03157 ; brim
G1 X72.538 Y54.189 E0.03453 ; brim
G1 X73.122 Y53.222 E0.03541 ; brim
G1 X73.850 Y52.271 E0.03754 ; brim
G1 X74.638 Y51.444 E0.03582 ; brim
G1 X75.496 Y50.716 E0.03530 ; brim
G1 X76.426 Y50.081 E0.03530 ; brim
G1 X77.436 Y49.539 E0.03595 ; brim
G1 X78.480 Y49.114 E0.03534 ; brim
G1 X79.584 Y48.796 E0.03602 ; brim
G1 X80.692 Y48.600 E0.03527 ; brim
G1 X81.788 Y48.523 E0.03446 ; brim
G1 X168.205 Y48.523 E2.70955 ; brim
G1 X169.251 Y48.593 E0.03286 ; brim
G1 X170.317 Y48.773 E0.03390 ; brim
G1 X171.340 Y49.053 E0.03325 ; brim
G1 X172.313 Y49.425 E0.03266 ; brim
G1 X173.260 Y49.898 E0.03318 ; brim
G1 X174.155 Y50.461 E0.03316 ; brim
G1 X174.992 Y51.111 E0.03325 ; brim
G1 X175.771 Y51.849 E0.03365 ; brim
G1 X176.863 Y53.199 E0.05443 ; brim
G1 X177.431 Y54.133 E0.03428 ; brim
G1 X177.904 Y55.121 E0.03433 ; brim
G1 X178.237 Y56.035 E0.03051 ; brim
G1 X178.484 Y56.966 E0.03018 ; brim
G1 X178.647 Y57.917 E0.03025 ; brim
G1 X178.722 Y58.873 E0.03007 ; brim
G1 X178.730 Y150.855 E2.88403 ; brim
G1 X178.672 Y151.864 E0.03171 ; brim
G1 X178.518 Y152.874 E0.03203 ; brim
G1 X178.268 Y153.865 E0.03204 ; brim
G1 X177.931 Y154.815 E0.03159 ; brim
G1 X177.461 Y155.811 E0.03453 ; brim
G1 X176.878 Y156.777 E0.03540 ; brim
G1 X176.150 Y157.729 E0.03755 ; brim
G1 X175.362 Y158.556 E0.03582 ; brim
G1 X174.486 Y159.298 E0.03599 ; brim
G1 X173.553 Y159.931 E0.03535 ; brim
G1 X172.542 Y160.471 E0.03594 ; brim
G1 X171.478 Y160.901 E0.03599 ; brim
G1 X170.373 Y161.214 E0.03602 ; brim
G1 X169.264 Y161.405 E0.03528 ; brim
G1 X168.112 Y161.480 E0.03620 ; brim
G1 X81.895 Y161.480 E2.70327 ; brim
G1 X80.885 Y161.422 E0.03172 ; brim
G1 X79.875 Y161.267 E0.03204 ; brim
G1 X78.902 Y161.023 E0.03146 ; brim
G1 X77.935 Y160.681 E0.03214 ; brim
G1 X76.939 Y160.212 E0.03453 ; brim
G1 X75.972 Y159.628 E0.03541 ; brim
G1 X75.021 Y158.900 E0.03755 ; brim
G1 X74.194 Y158.112 E0.03583 ; brim
G1 X73.452 Y157.236 E0.03597 ; brim
G1 X72.819 Y156.303 E0.03536 ; brim
G1 X72.279 Y155.292 E0.03595 ; brim
G1 X71.849 Y154.228 E0.03597 ; brim
G1 X71.536 Y153.123 E0.03601 ; brim
G1 X71.345 Y152.014 E0.03529 ; brim
G1 X71.270 Y150.862 E0.03621 ; brim
G1 X71.270 Y59.145 E2.87572 ; brim
G1 X71.328 Y58.135 E0.03173 ; brim
G1 X71.448 Y57.353 E0.02480 ; brim
G1 F5760
G1 X71.483 Y57.125 E-0.08003 ; wipe and retract
G1 F5760
G1 X71.732 Y56.134 E-0.35373 ; wipe and retract
G1 F5760
G1 X72.048 Y55.247 E-0.32623 ; wipe and retract
G1 E-0.04000 F2100.00000 ; retract
G1 Z0.800 F7200.000 ; lift Z
G1 X73.440 Y53.427 F7200.000 ; move to first brim point
G1 Z0.200 F7200.000 ; restore layer Z
G1 E0.80000 F2100.00000 ; unretract
G1 F1800
G1 X74.143 Y52.509 E0.03625 ; brim
G1 X74.904 Y51.712 E0.03454 ; brim
G1 X75.732 Y51.010 E0.03405 ; brim
G1 X76.630 Y50.399 E0.03406 ; brim
G1 X77.605 Y49.876 E0.03469 ; brim
G1 X78.613 Y49.467 E0.03408 ; brim
G1 X79.678 Y49.161 E0.03476 ; brim
G1 X80.747 Y48.973 E0.03403 ; brim
G1 X81.808 Y48.900 E0.03333 ; brim
G1 X168.187 Y48.899 E2.70835 ; brim
G1 X169.198 Y48.967 E0.03178 ; brim
G1 X170.227 Y49.139 E0.03272 ; brim
G1 X171.214 Y49.409 E0.03207 ; brim
G1 X172.169 Y49.774 E0.03207 ; brim
G1 X173.082 Y50.231 E0.03201 ; brim
G1 X173.946 Y50.775 E0.03199 ; brim
G1 X174.753 Y51.403 E0.03208 ; brim
G1 X175.503 Y52.114 E0.03240 ; brim
G1 X176.547 Y53.406 E0.05208 ; brim
G1 X177.104 Y54.321 E0.03359 ; brim
G1 X177.560 Y55.275 E0.03315 ; brim
G1 X177.880 Y56.156 E0.02939 ; brim
G1 X178.117 Y57.054 E0.02912 ; brim
G1 X178.274 Y57.971 E0.02919 ; brim
G1 X178.345 Y58.894 E0.02903 ; brim
G1 X178.353 Y150.849 E2.88318 ; brim
G1 X178.296 Y151.834 E0.03092 ; brim
G1 X178.146 Y152.808 E0.03091 ; brim
G1 X177.905 Y153.764 E0.03092 ; brim
G1 X177.579 Y154.679 E0.03046 ; brim
G1 X177.125 Y155.641 E0.03335 ; brim
G1 X176.561 Y156.573 E0.03416 ; brim
G1 X175.857 Y157.491 E0.03626 ; brim
G1 X175.096 Y158.288 E0.03455 ; brim
G1 X174.251 Y159.003 E0.03473 ; brim
G1 X173.350 Y159.613 E0.03410 ; brim
G1 X172.374 Y160.133 E0.03468 ; brim
G1 X171.347 Y160.547 E0.03472 ; brim
G1 X170.280 Y160.849 E0.03476 ; brim
G1 X169.210 Y161.032 E0.03403 ; brim
G1 X168.106 Y161.103 E0.03470 ; brim
G1 X81.900 Y161.103 E2.70291 ; brim
G1 X80.916 Y161.046 E0.03093 ; brim
G1 X79.941 Y160.896 E0.03092 ; brim
G1 X79.003 Y160.660 E0.03034 ; brim
G1 X78.071 Y160.329 E0.03101 ; brim
G1 X77.109 Y159.875 E0.03335 ; brim
G1 X76.177 Y159.310 E0.03416 ; brim
G1 X75.259 Y158.607 E0.03626 ; brim
G1 X74.462 Y157.846 E0.03455 ; brim
G1 X73.747 Y157.001 E0.03471 ; brim
G1 X73.137 Y156.100 E0.03410 ; brim
G1 X72.616 Y155.124 E0.03469 ; brim
G1 X72.203 Y154.097 E0.03471 ; brim
G1 X71.901 Y153.031 E0.03475 ; brim
G1 X71.718 Y151.960 E0.03404 ; brim
G1 X71.647 Y150.856 E0.03471 ; brim
G1 X71.647 Y59.150 E2.87536 ; brim
G1 X71.704 Y58.166 E0.03093 ; brim
G1 X71.854 Y57.191 E0.03092 ; brim
G1 X72.096 Y56.236 E0.03090 ; brim
G1 X72.421 Y55.321 E0.03044 ; brim
G1 X72.875 Y54.359 E0.03335 ; brim
G1 X73.409 Y53.478 E0.03229 ; brim
G1 X73.731 Y53.673 F7200.000 ; move to first brim point
G1 F1800
G1 X74.436 Y52.747 E0.03651 ; brim
G1 X75.169 Y51.980 E0.03327 ; brim
G1 X75.968 Y51.304 E0.03280 ; brim
G1 X76.834 Y50.716 E0.03281 ; brim
G1 X77.774 Y50.213 E0.03344 ; brim
G1 X78.745 Y49.820 E0.03283 ; brim
G1 X79.772 Y49.526 E0.03351 ; brim
G1 X80.802 Y49.346 E0.03278 ; brim
G1 X81.827 Y49.276 E0.03221 ; brim
G1 X168.168 Y49.276 E2.70718 ; brim
G1 X169.145 Y49.340 E0.03070 ; brim
G1 X170.138 Y49.506 E0.03154 ; brim
G1 X171.088 Y49.764 E0.03090 ; brim
G1 X172.010 Y50.115 E0.03091 ; brim
G1 X172.889 Y50.555 E0.03083 ; brim
G1 X173.737 Y51.088 E0.03140 ; brim
G1 X174.514 Y51.695 E0.03090 ; brim
G1 X175.234 Y52.379 E0.03115 ; brim
G1 X176.232 Y53.613 E0.04976 ; brim
G1 X176.768 Y54.492 E0.03229 ; brim
G1 X177.215 Y55.429 E0.03255 ; brim
G1 X177.522 Y56.276 E0.02825 ; brim
G1 X177.750 Y57.141 E0.02806 ; brim
G1 X177.901 Y58.026 E0.02812 ; brim
G1 X177.968 Y58.916 E0.02799 ; brim
G1 X177.976 Y150.844 E2.88234 ; brim
G1 X177.922 Y151.786 E0.02957 ; brim
G1 X177.778 Y152.725 E0.02979 ; brim
G1 X177.546 Y153.646 E0.02979 ; brim
G1 X177.227 Y154.544 E0.02988 ; brim
G1 X176.788 Y155.471 E0.03216 ; brim
G1 X176.244 Y156.369 E0.03291 ; brim
G1 X175.564 Y157.253 E0.03497 ; brim
G1 X174.831 Y158.020 E0.03327 ; brim
G1 X174.015 Y158.708 E0.03347 ; brim
G1 X173.147 Y159.295 E0.03284 ; brim
G1 X172.206 Y159.796 E0.03343 ; brim
G1 X171.234 Y160.187 E0.03285 ; brim
G1 X170.206 Y160.479 E0.03351 ; brim
G1 X169.176 Y160.656 E0.03278 ; brim
G1 X168.100 Y160.726 E0.03381 ; brim
G1 X81.906 Y160.726 E2.70255 ; brim
G1 X80.964 Y160.672 E0.02959 ; brim
G1 X80.024 Y160.528 E0.02980 ; brim
G1 X79.104 Y160.296 E0.02977 ; brim
G1 X78.206 Y159.977 E0.02987 ; brim
G1 X77.279 Y159.538 E0.03216 ; brim
G1 X76.381 Y158.994 E0.03292 ; brim
G1 X75.497 Y158.314 E0.03497 ; brim
G1 X74.730 Y157.581 E0.03328 ; brim
G1 X74.042 Y156.765 E0.03345 ; brim
G1 X73.455 Y155.898 E0.03285 ; brim
G1 X72.954 Y154.956 E0.03344 ; brim
G1 X72.563 Y153.984 E0.03284 ; brim
G1 X72.271 Y152.956 E0.03350 ; brim
G1 X72.094 Y151.926 E0.03278 ; brim
G1 X72.024 Y150.850 E0.03382 ; brim
G1 X72.024 Y59.156 E2.87500 ; brim
G1 X72.078 Y58.214 E0.02959 ; brim
G1 X72.222 Y57.274 E0.02980 ; brim
G1 X72.454 Y56.354 E0.02977 ; brim
G1 X72.773 Y55.456 E0.02986 ; brim
G1 X73.212 Y54.529 E0.03216 ; brim
G1 X73.700 Y53.725 E0.02949 ; brim
G1 X74.022 Y53.921 F7200.000 ; move to first brim point
G1 F1800
G1 X74.728 Y52.985 E0.03676 ; brim
G1 X75.434 Y52.248 E0.03200 ; brim
