; generated by Slic3r Prusa Edition 1.41.3+ on 2019-03-03 at 22:57:23

; 

; external perimeters extrusion width = 0.45mm
; perimeters extrusion width = 0.45mm
; infill extrusion width = 0.45mm
; solid infill extrusion width = 0.45mm
; top infill extrusion width = 0.40mm
; support material extrusion width = 0.45mm
; first layer extrusion width = 0.42mm

M73 P0 R28
M73 Q0 S28
M201 X1000 Y1000 Z1000 E5000 ; sets maximum accelerations, mm/sec^2
M203 X200 Y200 Z12 E120 ; sets maximum feedrates, mm/sec
M204 P1250 R1250 T1250 ; sets acceleration (P, T) and retract acceleration (R), mm/sec^2
M205 X8.00 Y8.00 Z0.40 E1.50 ; sets the jerk limits, mm/sec
M205 S0 T0 ; sets the minimum extruding and travel feed rate, mm/sec
M107
M115 U3.5.1 ; tell printer latest fw version
M83  ; extruder relative mode
M104 S215 ; set extruder temp
M140 S60 ; set bed temp
M190 S60 ; wait for bed temp
M109 S215 ; wait for extruder temp
G28 W ; home all without mesh bed level
G80 ; mesh bed leveling
G1 Y-3.0 F1000.0 ; go outside print area
G92 E0.0
G1 X60.0 E9.0  F1000.0 ; intro line
M73 Q0 S28
M73 P0 R28
G1 X100.0 E12.5  F1000.0 ; intro line
G92 E0.0
M221 S95
M900 K30; Filament gcode
G21 ; set units to millimeters
G90 ; use absolute coordinates
M83 ; use relative distances for extrusion
;BEFORE_LAYER_CHANGE
G92 E0.0
;0.2


G1 E-0.80000 F2100.00000
G1 Z0.600 F10800.000
;AFTER_LAYER_CHANGE
;0.2
G1 X106.326 Y55.124
G1 Z0.200
G1 E0.80000 F2100.00000
M204 S1000
G1 F600
G1 X107.173 Y54.848 E0.02792
G1 X107.835 Y54.737 E0.02104
G1 X141.654 Y54.711 E1.06036
G1 X142.710 Y54.821 E0.03330
G1 X143.664 Y55.120 E0.03134
G1 X144.339 Y55.465 E0.02378
G1 X145.188 Y56.106 E0.03335
G1 X145.853 Y56.858 E0.03146
G1 X146.388 Y57.786 E0.03358
G1 X146.720 Y58.799 E0.03345
G1 X146.836 Y59.789 E0.03125
G1 X146.839 Y150.107 E2.83185
G1 X146.745 Y151.071 E0.03034
G1 X146.570 Y151.747 E0.02190
G1 X146.195 Y152.600 E0.02922
G1 X145.853 Y153.143 E0.02012
G1 X145.441 Y153.641 E0.02026
G1 X144.777 Y154.239 E0.02803
G1 X143.667 Y154.879 E0.04018
G1 X142.811 Y155.156 E0.02819
G1 X142.152 Y155.263 E0.02095
G1 X108.335 Y155.288 E1.06029
G1 X107.381 Y155.196 E0.03006
G1 X106.703 Y155.020 E0.02195
G1 X105.855 Y154.647 E0.02906
G1 X105.293 Y154.292 E0.02085
G1 X104.573 Y153.655 E0.03013
G1 X104.155 Y153.154 E0.02046
G1 X103.805 Y152.599 E0.02056
G1 X103.421 Y151.719 E0.03012
G1 X103.257 Y151.082 E0.02061
G1 X103.163 Y150.174 E0.02863
G1 X103.161 Y59.893 E2.83071
G1 X103.256 Y58.923 E0.03056
G1 X103.430 Y58.253 E0.02168
G1 X103.805 Y57.400 E0.02922
G1 X104.142 Y56.866 E0.01980
G1 X104.556 Y56.362 E0.02044
G1 X105.213 Y55.769 E0.02778
G1 X106.275 Y55.154 E0.03845
; PURGING FINISHED
G1 F8640
G1 X107.173 Y54.848 E-0.21915
G1 X107.835 Y54.737 E-0.15493
G1 X109.506 Y54.736 E-0.38592
G1 E-0.04000 F2100.00000
G1 Z0.800 F10800.000
G1 X112.907 Y63.345
G1 Z0.200
G1 E0.80000 F2100.00000
G1 F600
G1 X113.441 Y63.171 E0.01762
G1 X113.969 Y63.116 E0.01665
G1 X136.281 Y63.127 E0.69957
G1 X136.830 Y63.244 E0.01761
G1 X137.344 Y63.473 E0.01762
G1 X137.798 Y63.803 E0.01761
G1 X138.174 Y64.220 E0.01762
G1 X138.455 Y64.707 E0.01762
G1 X138.629 Y65.241 E0.01762
G1 X138.685 Y65.777 E0.01690
G1 X138.671 Y66.273 E0.01556
G1 X138.624 Y66.573 E0.00953
G1 X138.460 Y67.078 E0.01664
G1 X138.318 Y67.356 E0.00978
G1 X137.997 Y67.798 E0.01713
G1 X137.591 Y68.164 E0.01713
G1 X137.330 Y68.334 E0.00978
G1 X136.830 Y68.556 E0.01713
G1 X136.281 Y68.673 E0.01761
G1 X113.719 Y68.673 E0.70741
G1 X113.170 Y68.556 E0.01761
G1 X112.670 Y68.334 E0.01713
G1 X112.409 Y68.164 E0.00978
G1 X112.003 Y67.798 E0.01713
G1 X111.673 Y67.344 E0.01762
G1 X111.444 Y66.830 E0.01762
G1 X111.329 Y66.289 E0.01736
G1 X111.315 Y65.777 E0.01605
G1 X111.371 Y65.241 E0.01690
G1 X111.545 Y64.707 E0.01762
G1 X111.824 Y64.223 E0.01752
G1 X112.131 Y63.875 E0.01456
G1 X112.427 Y63.622 E0.01220
G1 X112.855 Y63.375 E0.01549
G1 X113.043 Y63.701 F10800.000
G1 F600
G1 X113.520 Y63.542 E0.01576
G1 X113.989 Y63.493 E0.01478
G1 X136.241 Y63.504 E0.69770
G1 X136.713 Y63.605 E0.01513
G1 X137.154 Y63.801 E0.01513
G1 X137.544 Y64.085 E0.01513
G1 X137.867 Y64.443 E0.01513
G1 X138.109 Y64.861 E0.01513
G1 X138.258 Y65.320 E0.01513
G1 X138.307 Y65.792 E0.01487
G1 X138.295 Y66.239 E0.01401
G1 X138.256 Y66.485 E0.00783
G1 X138.110 Y66.934 E0.01478
G1 X137.996 Y67.159 E0.00792
G1 X137.715 Y67.545 E0.01496
G1 X137.361 Y67.864 E0.01495
G1 X137.149 Y68.001 E0.00792
G1 X136.713 Y68.195 E0.01496
G1 X136.241 Y68.296 E0.01513
G1 X113.759 Y68.296 E0.70492
G1 X113.287 Y68.195 E0.01513
G1 X112.851 Y68.001 E0.01496
G1 X112.639 Y67.864 E0.00792
G1 X112.285 Y67.545 E0.01495
G1 X112.001 Y67.154 E0.01513
G1 X111.805 Y66.713 E0.01513
G1 X111.705 Y66.244 E0.01504
G1 X111.693 Y65.792 E0.01418
G1 X111.742 Y65.320 E0.01487
G1 X111.891 Y64.861 E0.01513
G1 X112.132 Y64.444 E0.01510
G1 X112.396 Y64.144 E0.01254
G1 X112.646 Y63.931 E0.01027
G1 X112.992 Y63.731 E0.01252
G1 X113.087 Y63.304 F10800.000
G1 F8640
G1 X113.520 Y63.542 E-0.12965
G1 X113.989 Y63.493 E-0.10888
G1 X116.247 Y63.494 E-0.52147
G1 E-0.04000 F2100.00000
G1 Z0.800 F10800.000
G1 X108.098 Y57.501
G1 Z0.200
G1 E0.80000 F2100.00000
G1 F600
G1 X108.365 Y57.487 E0.00840
G1 X141.743 Y57.493 E1.04654
G1 X142.151 Y57.541 E0.01289
G1 X142.395 Y57.606 E0.00792
G1 X142.631 Y57.696 E0.00791
G1 X142.856 Y57.811 E0.00792
G1 X143.068 Y57.948 E0.00791
G1 X143.264 Y58.107 E0.00792
G1 X143.443 Y58.286 E0.00792
G1 X143.602 Y58.482 E0.00792
G1 X143.739 Y58.694 E0.00791
G1 X143.854 Y58.919 E0.00792
G1 X143.944 Y59.155 E0.00791
G1 X144.009 Y59.399 E0.00792
G1 X144.049 Y59.648 E0.00792
G1 X144.063 Y59.915 E0.00840
G1 X144.063 Y150.085 E2.82720
G1 X144.049 Y150.352 E0.00840
G1 X144.009 Y150.601 E0.00792
G1 X143.944 Y150.845 E0.00792
G1 X143.854 Y151.081 E0.00791
G1 X143.739 Y151.306 E0.00792
G1 X143.606 Y151.511 E0.00766
G1 X143.368 Y151.789 E0.01147
G1 X143.068 Y152.052 E0.01250
G1 X142.856 Y152.189 E0.00791
G1 X142.631 Y152.304 E0.00792
G1 X142.395 Y152.394 E0.00791
G1 X142.151 Y152.459 E0.00792
G1 X141.902 Y152.499 E0.00792
G1 X141.635 Y152.513 E0.00840
G1 X108.365 Y152.513 E1.04314
M73 Q3 S27
M73 P3 R27
G1 X108.098 Y152.499 E0.00840
G1 X107.849 Y152.459 E0.00792
G1 X107.605 Y152.394 E0.00792
G1 X107.369 Y152.304 E0.00792
G1 X107.151 Y152.192 E0.00767
G1 X106.932 Y152.051 E0.00818
G1 X106.736 Y151.893 E0.00789
G1 X106.557 Y151.714 E0.00792
G1 X106.399 Y151.518 E0.00792
G1 X106.261 Y151.306 E0.00792
G1 X106.146 Y151.081 E0.00792
G1 X106.056 Y150.845 E0.00791
G1 X105.991 Y150.601 E0.00792
G1 X105.951 Y150.352 E0.00792
G1 X105.937 Y150.085 E0.00840
G1 X105.937 Y59.915 E2.82720
G1 X105.951 Y59.648 E0.00840
G1 X105.991 Y59.399 E0.00792
G1 X106.056 Y59.155 E0.00792
G1 X106.146 Y58.919 E0.00791
G1 X106.261 Y58.694 E0.00792
G1 X106.399 Y58.482 E0.00792
G1 X106.557 Y58.286 E0.00792
G1 X106.736 Y58.107 E0.00792
G1 X106.932 Y57.948 E0.00792
G1 X107.144 Y57.811 E0.00791
G1 X107.369 Y57.696 E0.00792
G1 X107.605 Y57.606 E0.00792
G1 X108.039 Y57.510 E0.01393
G1 X107.980 Y57.138 F10800.000
G1 F600
G1 X108.355 Y57.110 E0.01182
G1 X141.753 Y57.116 E1.04716
G1 X142.230 Y57.171 E0.01505
G1 X142.512 Y57.247 E0.00916
G1 X142.785 Y57.352 E0.00915
G1 X143.045 Y57.484 E0.00916
G1 X143.290 Y57.643 E0.00915
G1 X143.517 Y57.827 E0.00916
G1 X143.723 Y58.033 E0.00916
G1 X143.907 Y58.260 E0.00916
G1 X144.066 Y58.505 E0.00915
G1 X144.198 Y58.765 E0.00916
G1 X144.303 Y59.038 E0.00915
G1 X144.379 Y59.320 E0.00916
G1 X144.424 Y59.608 E0.00916
G1 X144.440 Y59.905 E0.00933
G1 X144.440 Y150.095 E2.82781
G1 X144.424 Y150.392 E0.00933
G1 X144.379 Y150.680 E0.00916
G1 X144.303 Y150.962 E0.00916
G1 X144.198 Y151.235 E0.00915
G1 X144.066 Y151.495 E0.00916
G1 X143.909 Y151.737 E0.00906
G1 X143.645 Y152.045 E0.01271
G1 X143.290 Y152.357 E0.01481
G1 X143.045 Y152.516 E0.00915
G1 X142.785 Y152.649 E0.00916
G1 X142.512 Y152.753 E0.00915
G1 X142.230 Y152.829 E0.00916
G1 X141.942 Y152.874 E0.00916
G1 X141.645 Y152.890 E0.00933
G1 X108.355 Y152.890 E1.04375
G1 X108.058 Y152.874 E0.00933
G1 X107.770 Y152.829 E0.00915
G1 X107.488 Y152.753 E0.00915
G1 X107.215 Y152.648 E0.00916
G1 X106.963 Y152.520 E0.00889
G1 X106.710 Y152.357 E0.00943
G1 X106.483 Y152.173 E0.00915
G1 X106.277 Y151.967 E0.00915
G1 X106.093 Y151.740 E0.00916
G1 X105.934 Y151.495 E0.00916
G1 X105.802 Y151.235 E0.00916
G1 X105.697 Y150.962 E0.00915
G1 X105.621 Y150.680 E0.00916
G1 X105.576 Y150.392 E0.00916
G1 X105.560 Y150.095 E0.00933
G1 X105.560 Y59.905 E2.82781
G1 X105.576 Y59.608 E0.00933
G1 X105.621 Y59.320 E0.00916
G1 X105.697 Y59.038 E0.00916
G1 X105.802 Y58.765 E0.00915
G1 X105.934 Y58.505 E0.00916
G1 X106.093 Y58.260 E0.00916
G1 X106.277 Y58.033 E0.00915
G1 X106.483 Y57.827 E0.00915
G1 X106.710 Y57.643 E0.00916
G1 X106.955 Y57.484 E0.00915
G1 X107.215 Y57.352 E0.00916
G1 X107.488 Y57.247 E0.00916
G1 X107.920 Y57.147 E0.01391
G1 X108.212 Y57.435 F10800.000
G1 F8640
G1 X108.355 Y57.110 E-0.10086
G1 X111.210 Y57.110 E-0.65914
G1 E-0.04000 F2100.00000
G1 Z0.800 F10800.000
G1 X111.312 Y67.229
G1 Z0.200
G1 E0.80000 F2100.00000
G1 F600
G1 X106.220 Y62.137 E0.22660
G1 X106.220 Y61.602 E0.01684
G1 X111.076 Y66.458 E0.21609
G1 X111.047 Y66.322 E0.00436
G1 X111.035 Y65.882 E0.01386
G1 X106.220 Y61.067 E0.21427
G1 X106.220 Y60.532 E0.01684
G1 X111.072 Y65.384 E0.21592
G1 X111.093 Y65.182 E0.00638
G1 X111.170 Y64.946 E0.00780
G1 X106.220 Y59.996 E0.22027
G1 X106.233 Y59.678 E0.01004
G1 X106.261 Y59.502 E0.00559
G1 X111.309 Y64.550 E0.22465
G1 X111.505 Y64.211 E0.01233
G1 X106.384 Y59.090 E0.22788
G1 X106.569 Y58.740 E0.01246
G1 X111.731 Y63.902 E0.22971
G1 X111.989 Y63.625 E0.01191
G1 X106.804 Y58.440 E0.23073
G1 X106.926 Y58.318 E0.00542
G1 X107.087 Y58.187 E0.00652
G1 X112.280 Y63.380 E0.23109
G1 X112.619 Y63.185 E0.01233
G1 X107.421 Y57.987 E0.23129
G1 X107.484 Y57.955 E0.00221
G1 X107.813 Y57.843 E0.01092
G1 X112.990 Y63.021 E0.23040
G1 X113.396 Y62.892 E0.01341
G1 X108.279 Y57.775 E0.22770
G1 X108.810 Y57.770 E0.01669
G1 X113.881 Y62.841 E0.22565
G1 X114.408 Y62.833 E0.01660
G1 X109.345 Y57.770 E0.22531
G1 X109.880 Y57.770 E0.01684
G1 X114.944 Y62.834 E0.22532
G1 X115.479 Y62.834 E0.01685
G1 X110.416 Y57.770 E0.22533
G1 X110.951 Y57.770 E0.01684
G1 X116.015 Y62.834 E0.22534
G1 X116.550 Y62.834 E0.01685
G1 X111.486 Y57.770 E0.22534
G1 X112.021 Y57.770 E0.01684
G1 X117.086 Y62.835 E0.22535
G1 X117.621 Y62.835 E0.01685
G1 X112.557 Y57.771 E0.22536
G1 X113.092 Y57.771 E0.01684
G1 X118.156 Y62.835 E0.22537
G1 X118.692 Y62.835 E0.01685
G1 X113.627 Y57.771 E0.22538
G1 X114.162 Y57.771 E0.01684
G1 X119.227 Y62.836 E0.22538
G1 X119.763 Y62.836 E0.01685
G1 X114.698 Y57.771 E0.22539
G1 X115.233 Y57.771 E0.01684
G1 X120.298 Y62.836 E0.22540
G1 X120.834 Y62.837 E0.01685
G1 X115.768 Y57.771 E0.22541
G1 X116.304 Y57.771 E0.01684
G1 X121.369 Y62.837 E0.22542
G1 X121.905 Y62.837 E0.01685
G1 X116.839 Y57.771 E0.22543
G1 X117.374 Y57.771 E0.01684
G1 X122.440 Y62.837 E0.22543
G1 X122.975 Y62.838 E0.01685
G1 X117.909 Y57.771 E0.22544
M73 Q7 S26
M73 P7 R26
G1 X118.445 Y57.772 E0.01684
G1 X123.511 Y62.838 E0.22545
G1 X124.046 Y62.838 E0.01685
G1 X118.980 Y57.772 E0.22546
G1 X119.515 Y57.772 E0.01684
G1 X124.582 Y62.839 E0.22547
G1 X125.117 Y62.839 E0.01685
G1 X120.050 Y57.772 E0.22548
G1 X120.586 Y57.772 E0.01684
G1 X125.653 Y62.839 E0.22548
G1 X126.188 Y62.839 E0.01685
G1 X121.121 Y57.772 E0.22549
G1 X121.656 Y57.772 E0.01684
G1 X126.724 Y62.840 E0.22550
G1 X127.259 Y62.840 E0.01685
G1 X122.191 Y57.772 E0.22551
G1 X122.727 Y57.772 E0.01684
G1 X127.795 Y62.840 E0.22552
G1 X128.330 Y62.840 E0.01685
G1 X123.262 Y57.772 E0.22553
G1 X123.797 Y57.772 E0.01684
G1 X128.865 Y62.841 E0.22553
G1 X129.401 Y62.841 E0.01685
G1 X124.332 Y57.773 E0.22554
G1 X124.868 Y57.773 E0.01684
G1 X129.936 Y62.841 E0.22555
G1 X130.472 Y62.842 E0.01685
G1 X125.403 Y57.773 E0.22556
G1 X125.938 Y57.773 E0.01684
G1 X131.007 Y62.842 E0.22557
G1 X131.543 Y62.842 E0.01685
G1 X126.473 Y57.773 E0.22558
G1 X127.009 Y57.773 E0.01684
G1 X132.078 Y62.842 E0.22558
G1 X132.614 Y62.843 E0.01685
G1 X127.544 Y57.773 E0.22559
G1 X128.079 Y57.773 E0.01684
G1 X133.149 Y62.843 E0.22560
G1 X133.684 Y62.843 E0.01685
G1 X128.615 Y57.773 E0.22561
G1 X129.150 Y57.773 E0.01684
G1 X134.220 Y62.844 E0.22562
G1 X134.755 Y62.844 E0.01685
G1 X129.685 Y57.773 E0.22563
G1 X130.220 Y57.774 E0.01684
G1 X135.291 Y62.844 E0.22563
G1 X135.826 Y62.844 E0.01685
G1 X130.756 Y57.774 E0.22564
G1 X131.291 Y57.774 E0.01684
G1 X136.375 Y62.858 E0.22626
G1 X136.918 Y62.974 E0.01746
G1 X137.112 Y63.060 E0.00668
G1 X131.826 Y57.774 E0.23523
G1 X132.361 Y57.774 E0.01684
G1 X143.780 Y69.193 E0.50813
G1 X143.780 Y68.658 E0.01684
G1 X132.897 Y57.774 E0.48431
G1 X133.432 Y57.774 E0.01684
G1 X143.780 Y68.122 E0.46049
G1 X143.780 Y67.587 E0.01684
G1 X133.967 Y57.774 E0.43667
G1 X134.502 Y57.774 E0.01684
G1 X143.780 Y67.052 E0.41286
G1 X143.780 Y66.517 E0.01684
G1 X135.038 Y57.774 E0.38904
G1 X135.573 Y57.774 E0.01684
G1 X143.780 Y65.982 E0.36522
G1 X143.780 Y65.447 E0.01684
G1 X136.108 Y57.775 E0.34140
G1 X136.643 Y57.775 E0.01684
G1 X143.780 Y64.911 E0.31758
G1 X143.780 Y64.376 E0.01684
G1 X137.179 Y57.775 E0.29376
G1 X137.714 Y57.775 E0.01684
G1 X143.780 Y63.841 E0.26994
G1 X143.780 Y63.306 E0.01684
G1 X138.249 Y57.775 E0.24612
G1 X138.784 Y57.775 E0.01684
G1 X143.780 Y62.771 E0.22231
G1 X143.780 Y62.236 E0.01684
G1 X139.320 Y57.775 E0.19849
G1 X139.855 Y57.775 E0.01684
G1 X143.780 Y61.700 E0.17467
G1 X143.780 Y61.165 E0.01684
G1 X140.390 Y57.775 E0.15085
G1 X140.926 Y57.775 E0.01684
G1 X143.780 Y60.630 E0.12703
G1 X143.780 Y60.095 E0.01684
G1 X141.461 Y57.775 E0.10321
G1 X141.727 Y57.776 E0.00837
G1 X142.032 Y57.811 E0.00966
G1 X143.939 Y59.719 E0.08489
G1 X143.768 Y59.013 F10800.000
G1 F600
G1 X142.537 Y57.782 E0.05480
G1 F8640
G1 X143.768 Y59.013 E-0.40210
G1 E-0.39790 F2100.00000
G1 Z0.800 F10800.000
G1 X143.950 Y69.898
G1 Z0.200
G1 E0.80000 F2100.00000
G1 F600
G1 X138.749 Y64.697 E0.23143
G1 X138.907 Y65.182 E0.01605
G1 X138.931 Y65.414 E0.00734
G1 X143.780 Y70.263 E0.21577
G1 X143.780 Y70.798 E0.01684
G1 X138.962 Y65.980 E0.21439
G1 X138.954 Y66.299 E0.01004
G1 X138.925 Y66.479 E0.00571
G1 X143.780 Y71.333 E0.21604
G1 X143.780 Y71.869 E0.01684
G1 X138.814 Y66.903 E0.22098
G1 X138.722 Y67.187 E0.00940
G1 X138.668 Y67.292 E0.00372
G1 X143.780 Y72.404 E0.22747
G1 X143.780 Y72.939 E0.01684
G1 X138.470 Y67.629 E0.23630
G1 X138.245 Y67.939 E0.01206
G1 X143.780 Y73.474 E0.24632
G1 X143.780 Y74.009 E0.01684
G1 X137.972 Y68.201 E0.25845
G1 X137.679 Y68.444 E0.01196
G1 X143.780 Y74.544 E0.27148
G1 X143.780 Y75.080 E0.01684
G1 X137.339 Y68.639 E0.28661
G1 X136.969 Y68.804 E0.01276
G1 X143.780 Y75.615 E0.30309
G1 X143.780 Y76.150 E0.01684
G1 X136.537 Y68.907 E0.32230
G1 X136.311 Y68.955 E0.00730
G1 X136.050 Y68.955 E0.00818
G1 X143.780 Y76.685 E0.34397
G1 X143.780 Y77.220 E0.01684
G1 X135.515 Y68.955 E0.36778
G1 X134.980 Y68.955 E0.01684
G1 X143.780 Y77.755 E0.39160
G1 X143.780 Y78.291 E0.01684
G1 X134.445 Y68.955 E0.41541
G1 X133.910 Y68.955 E0.01684
G1 X143.780 Y78.826 E0.43923
G1 X143.780 Y79.361 E0.01684
G1 X133.375 Y68.955 E0.46304
G1 X132.839 Y68.955 E0.01684
G1 X143.780 Y79.896 E0.48685
M73 Q11 S25
M73 P11 R25
G1 X143.780 Y80.431 E0.01684
G1 X132.304 Y68.955 E0.51067
G1 X131.769 Y68.955 E0.01684
G1 X143.780 Y80.966 E0.53448
G1 X143.780 Y81.502 E0.01684
G1 X131.234 Y68.955 E0.55830
G1 X130.699 Y68.955 E0.01684
G1 X143.780 Y82.037 E0.58211
G1 X143.780 Y82.572 E0.01684
G1 X130.164 Y68.955 E0.60593
G1 X129.628 Y68.955 E0.01684
G1 X143.780 Y83.107 E0.62974
G1 X143.780 Y83.642 E0.01684
G1 X129.093 Y68.955 E0.65356
G1 X128.558 Y68.955 E0.01684
G1 X143.780 Y84.177 E0.67737
G1 X143.780 Y84.713 E0.01684
G1 X128.023 Y68.955 E0.70119
G1 X127.488 Y68.955 E0.01684
G1 X143.780 Y85.248 E0.72500
G1 X143.780 Y85.783 E0.01684
G1 X126.953 Y68.955 E0.74882
G1 X126.417 Y68.955 E0.01684
G1 X143.780 Y86.318 E0.77263
G1 X143.780 Y86.853 E0.01684
G1 X125.882 Y68.955 E0.79645
G1 X125.347 Y68.955 E0.01684
G1 X143.780 Y87.389 E0.82026
G1 X143.780 Y87.924 E0.01684
G1 X124.812 Y68.955 E0.84408
G1 X124.277 Y68.955 E0.01684
